svgs/light/value-absolute.svg

<svg xmlns="http://www.w3.org/2000/svg" viewBox="0 0 512 512"><!-- Font Awesome Pro 6.0.0-alpha2 by @fontawesome - https://fontawesome.com License - https://fontawesome.com/license (Commercial License) --><path d="M16 32C7.199 32 0 39.199 0 48V464C0 472.799 7.199 480 16 480S32 472.799 32 464V48C32 39.199 24.801 32 16 32ZM496 32C487.199 32 480 39.199 480 48V464C480 472.799 487.199 480 496 480S512 472.799 512 464V48C512 39.199 504.801 32 496 32ZM363.312 148.688C357.062 142.438 346.937 142.438 340.688 148.688L256 233.375L171.312 148.688C165.062 142.438 154.937 142.438 148.688 148.688S142.438 165.063 148.688 171.312L233.375 256L148.688 340.688C142.438 346.938 142.438 357.063 148.688 363.312C151.812 366.438 155.906 368 160 368S168.188 366.438 171.312 363.312L256 278.625L340.688 363.312C343.812 366.438 347.906 368 352 368S360.188 366.438 363.312 363.312C369.562 357.062 369.562 346.937 363.312 340.688L278.625 256L363.312 171.312C369.562 165.062 369.562 154.938 363.312 148.688Z"/></svg>

<svg xmlns="http://www.w3.org/2000/svg" viewBox="0 0 512 512"><!--! Font Awesome Pro 6.3.0 by @fontawesome - https://fontawesome.com License - https://fontawesome.com/license (Commercial License) Copyright 2023 Fonticons, Inc. --><path d="M16 32C7.199 32 0 39.2 0 48v416C0 472.8 7.199 480 16 480S32 472.8 32 464v-416C32 39.2 24.8 32 16 32zM496 32C487.2 32 480 39.2 480 48v416c0 8.799 7.199 16 16 16s16-7.201 16-16v-416C512 39.2 504.8 32 496 32zM363.3 148.7c-6.25-6.25-16.38-6.25-22.62 0L256 233.4L171.3 148.7c-6.25-6.25-16.38-6.25-22.62 0s-6.25 16.38 0 22.62L233.4 256l-84.69 84.69c-6.25 6.25-6.25 16.38 0 22.62C151.8 366.4 155.9 368 160 368s8.188-1.562 11.31-4.688L256 278.6l84.69 84.69C343.8 366.4 347.9 368 352 368s8.188-1.562 11.31-4.688c6.25-6.25 6.25-16.38 0-22.62L278.6 256l84.69-84.69C369.6 165.1 369.6 154.9 363.3 148.7z"/></svg>
